UnityPomodoro/Assets/AdrianMiasik/SVGs/icon-reset.svg

<svg clip-rule="evenodd" fill-rule="evenodd" stroke-linejoin="round" stroke-miterlimit="2" viewBox="0 0 37 37" xmlns="http://www.w3.org/2000/svg" xmlns:xlink="http://www.w3.org/1999/xlink"><clipPath id="a"><path clip-rule="evenodd" d="m0 0h100v100h-100z"/></clipPath><g clip-path="url(#a)" transform="matrix(.36 0 0 .36 .658 .908)"><path d="m50 23.529h-18.176l13.529-13.47c1.107-1.107 1.73-2.611 1.73-4.177 0-3.24-2.666-5.906-5.907-5.906-1.565 0-3.069.623-4.176 1.73l-23.529 23.529c-2.266 2.28-2.266 6.015 0 8.294l23.529 23.53c1.105 1.112 2.609 1.738 4.176 1.738 3.229 0 5.886-2.656 5.886-5.885 0-1.553-.615-3.045-1.709-4.147l-13.529-13.471h18.176.035c14.521 0 26.47 11.949 26.47 26.471 0 14.521-11.949 26.47-26.47 26.47-9.922 0-19.044-5.579-23.564-14.411-.973-2.05-3.047-3.361-5.315-3.361-3.227 0-5.882 2.655-5.882 5.882 0 .99.25 1.964.726 2.831 6.528 12.763 19.706 20.824 34.041 20.824 20.975 0 38.235-17.26 38.235-38.235 0-20.976-17.26-38.236-38.235-38.236-.014 0-.027 0-.041 0z" fill="#fff" fill-rule="nonzero"/></g></svg>

<?xml version="1.0" encoding="UTF-8" standalone="no"?>
<!DOCTYPE svg PUBLIC "-//W3C//DTD SVG 1.1//EN" "http://www.w3.org/Graphics/SVG/1.1/DTD/svg11.dtd">
<svg width="100%" height="100%" viewBox="0 0 37 37" version="1.1" xmlns="http://www.w3.org/2000/svg" xmlns:xlink="http://www.w3.org/1999/xlink" xml:space="preserve" xmlns:serif="http://www.serif.com/" style="fill-rule:evenodd;clip-rule:evenodd;stroke-linejoin:round;stroke-miterlimit:2;">
    <g transform="matrix(1,0,0,1,-195,-513)">
        <g transform="matrix(1,0,0,1,-84.2,184.473)">
            <g id="noun_restart_669115.svg" transform="matrix(0.36,0,0,0.36,297.858,347.435)">
                <g transform="matrix(1,0,0,1,-50,-50)">
                    <clipPath id="_clip1">
                        <rect x="0" y="0" width="100" height="100"/>
                    </clipPath>
                    <g clip-path="url(#_clip1)">
                        <g>
                            <g>
                                <path d="M50,23.529L31.824,23.529L45.353,10.059C46.46,8.952 47.083,7.448 47.083,5.882C47.083,2.642 44.417,-0.024 41.176,-0.024C39.611,-0.024 38.107,0.599 37,1.706L13.471,25.235C11.205,27.515 11.205,31.25 13.471,33.529L37,57.059C38.105,58.171 39.609,58.797 41.176,58.797C44.405,58.797 47.062,56.141 47.062,52.912C47.062,51.359 46.447,49.867 45.353,48.765L31.824,35.294L50,35.294C50.012,35.294 50.023,35.294 50.035,35.294C64.556,35.294 76.505,47.243 76.505,61.765C76.505,76.286 64.556,88.235 50.035,88.235C40.113,88.235 30.991,82.656 26.471,73.824C25.498,71.774 23.424,70.463 21.156,70.463C17.929,70.463 15.274,73.118 15.274,76.345C15.274,77.335 15.524,78.309 16,79.176C22.528,91.939 35.706,100 50.041,100C71.016,100 88.276,82.74 88.276,61.765C88.276,40.789 71.016,23.529 50.041,23.529C50.027,23.529 50.014,23.529 50,23.529Z" style="fill:white;fill-rule:nonzero;"/>
                            </g>
                        </g>
                    </g>
                </g>
            </g>
        </g>
    </g>
</svg>
